public/assets/images/leaves.svg

<svg width="180" height="206" viewBox="0 0 180 206" fill="none" xmlns="http://www.w3.org/2000/svg">
    <path d="M-4.86817 186.21C-22.1107 174.443 -21.3682 130.265 -0.1038 110.962C16.7056 95.6237 31.5762 109.476 56.6149 95.6031C87.3667 78.5304 81.9836 48.1217 110.405 29.542C136.929 12.2422 173.62 11.2307 179.292 22.0069C185.212 33.2373 152.748 48.6584 128.575 98.163C111.601 132.866 120.057 140.628 103.825 157.515C83.8399 178.386 55.6455 182.474 19.5518 187.717C4.94932 189.864 -0.351305 189.286 -4.86817 186.21Z" fill="#91A0D8" fill-opacity="0.27" />
    <path d="M83.2091 1.60639C65.3426 5.03058 49.2349 14.554 37.6612 28.5357C17.8271 53.2793 31.5743 70.1668 16.3365 103.612C-1.77921 143.367 -36.7683 153.615 -32.669 162.027C-28.1142 171.389 20.2287 169.141 41.7398 141.263C59.2551 118.582 42.5058 100.23 58.075 67.8162C77.5778 27.1748 122.857 16.5763 118.737 5.586C115.921 -1.87832 93.9336 -0.352478 83.2091 1.60639Z" fill="#9289FF" fill-opacity="0.4" />
    <path d="M10.2432 171C9.69169 171.004 9.20411 170.642 9.04787 170.113C8.86113 169.452 9.23694 168.764 9.89281 168.565C55.6645 155.337 83.6921 135.836 93.1515 110.619C94.9337 105.561 96.2647 100.354 97.1289 95.0599C98.654 87.0944 100.241 78.8401 106.094 69.0793C116.707 51.4356 135.317 38.6413 161.428 31.0473C162.082 30.8615 162.763 31.2394 162.953 31.8934C163.138 32.5485 162.761 33.2307 162.108 33.4204C136.615 40.8287 118.479 53.2516 108.216 70.3381C102.57 79.7274 101.106 87.4039 99.5608 95.5345C98.6644 100.964 97.285 106.302 95.439 111.486C85.6912 137.487 57.1277 157.483 10.5523 170.959L10.2432 171Z" fill="white" />
    <path d="M49.5644 148.17C4.12313 164.294 -22.7285 173.898 -21.985 184.12C-20.8696 197.919 31.3879 216.799 65.1383 198.29C85.6488 187.04 85.6901 169.497 120.164 143.749C137.534 130.771 148.895 126.761 147.945 124.19C145.941 118.781 93.126 132.684 49.5644 148.17Z" fill="#9289FF" fill-opacity="0.4" />
    <path d="M21.5625 192.983C11.8758 192.876 2.24619 191.488 -7.07396 188.856C-7.73221 188.665 -8.1242 187.993 -7.96434 187.329C-7.87729 187.011 -7.66661 186.74 -7.37902 186.578C-7.09142 186.415 -6.75062 186.373 -6.43209 186.462C16.5516 192.653 35.5183 191.848 49.9504 183.924C57.4046 179.796 62.167 174.781 67.6748 168.9C74.581 161.145 82.4025 154.25 90.969 148.366C101.279 141.385 112.531 135.896 124.389 132.063C124.699 131.96 125.038 131.984 125.33 132.131C125.622 132.279 125.842 132.537 125.941 132.848C126.146 133.491 125.796 134.179 125.155 134.395C113.524 138.168 102.483 143.552 92.3563 150.389C83.9433 156.175 76.2611 162.952 69.4762 170.572C63.8234 176.597 58.9368 181.798 51.1514 186.09C42.0354 190.854 31.8526 193.226 21.5625 192.983ZM-19.3767 158C-19.6535 157.994 -19.8952 157.812 -19.9755 157.548C-20.0693 157.224 -19.8855 156.886 -19.5625 156.787C-1.53599 151.604 12.1543 142.823 21.1572 130.69C30.1601 118.556 31.4817 107.492 33.1955 95.482C34.035 87.8747 35.5905 80.3628 37.8416 73.0455C46.1011 48.2028 68.0923 27.0207 103.113 10.0545C103.421 9.91877 103.783 10.0447 103.939 10.3424C104.087 10.6491 103.957 11.0171 103.65 11.165C68.9595 27.9667 47.1955 48.9226 39.0185 73.4362C36.7853 80.6788 35.2436 88.1153 34.4138 95.6465C32.7206 107.821 31.11 119.338 22.1484 131.409C13.1867 143.481 -0.916533 152.715 -19.1496 157.979L-19.3767 158Z" fill="white" />
    <path d="M75.6157 26.9852C75.5263 27.0049 75.4338 27.0049 75.3445 26.9852C75.1947 26.9118 75.0809 26.7785 75.0296 26.6163C74.9784 26.4542 74.9941 26.2776 75.0732 26.1277L81.8124 12.3649C81.9709 12.0427 82.3507 11.9095 82.6679 12.0648C82.965 12.2423 83.0824 12.6227 82.9391 12.9437L76.179 26.7065C76.0531 26.896 75.8384 27.0022 75.6157 26.9852ZM63.5992 37C63.3002 37.0033 63.0456 36.7764 63.0054 36.4708C62.9653 36.1651 63.1521 35.8765 63.4411 35.7976L77.2711 32.0274C77.4206 31.9778 77.5836 31.9961 77.7193 32.0777C77.855 32.1594 77.9506 32.2967 77.9823 32.4554C78.0594 32.7804 77.8775 33.1111 77.5674 33.2094L63.7375 36.9796L63.5992 37ZM55.6689 44H55.4912C55.32 43.9556 55.1745 43.8482 55.0869 43.7016C54.9993 43.5549 54.9768 43.3812 55.0245 43.2188L61.6912 19.4864C61.7331 19.3199 61.8441 19.1765 61.999 19.089C62.1539 19.0015 62.3395 18.9773 62.5135 19.0219C62.8622 19.1238 63.0669 19.4664 62.9801 19.8031L56.3134 43.5566C56.2192 43.8193 55.961 43.9969 55.6689 44ZM48.6266 55.9995C48.3855 56.0097 48.1631 55.8752 48.0685 55.662C47.9914 55.5208 47.9788 55.3552 48.0337 55.2047C48.0885 55.0543 48.2059 54.9324 48.3579 54.8681L61.1119 49.0526C61.4207 48.9216 61.7824 49.0431 61.9388 49.3304C62.0868 49.6264 61.9573 49.9816 61.6494 50.1244L48.8746 55.9399L48.6266 55.9995ZM41.4427 66.9794C41.1715 66.972 40.9454 66.7449 40.9093 66.4438L38.0033 42.6896C37.9708 42.3549 38.1834 42.0527 38.4815 42.0097C38.626 41.9801 38.775 42.0186 38.8934 42.1161C39.0118 42.2136 39.089 42.3614 39.1068 42.5248L41.9945 66.2995C42.0153 66.4637 41.9765 66.6304 41.8865 66.7621C41.7966 66.8938 41.6632 66.9795 41.5163 67L41.4427 66.9794ZM36.6124 79C36.4127 78.9987 36.2268 78.8987 36.1167 78.7332C36.0203 78.6 35.9813 78.4341 36.0084 78.2723C36.0356 78.1104 36.1266 77.9661 36.2613 77.8712L49.0245 69.1075C49.3096 68.9148 49.698 68.9883 49.8919 69.2716C50.0858 69.555 50.0118 69.9409 49.7267 70.1336L36.9635 78.8769C36.8641 78.9567 36.7401 79.0001 36.6124 79ZM33.4102 95.9989C33.1638 95.9997 32.9421 95.8384 32.8518 95.5925L28.0852 82.9718C27.9635 82.7541 27.9728 82.4799 28.1091 82.2723C28.2454 82.0647 28.4829 81.9628 28.715 82.0124C28.9472 82.0619 29.1303 82.2535 29.1821 82.5012L33.9487 95.1219C34.0142 95.2774 34.0171 95.4549 33.9567 95.6128C33.8964 95.7706 33.778 95.8948 33.6296 95.9561C33.5609 95.9895 33.4855 96.0042 33.4102 95.9989ZM32.5882 102.999C32.3902 103.001 32.2043 102.906 32.0922 102.745C31.9184 102.468 31.9972 102.105 32.2707 101.922L46.1601 93.052C46.4293 92.9322 46.7469 93.0253 46.9061 93.2708C47.0653 93.5163 47.018 93.8399 46.795 94.031L32.9057 102.901C32.8152 102.971 32.7025 103.005 32.5882 102.999ZM28.3861 120C28.088 119.998 27.8302 119.796 27.7629 119.511L25.0415 105.831C24.952 105.603 25.01 105.344 25.189 105.173C25.368 105.002 25.6334 104.953 25.8636 105.047C26.0939 105.142 26.2445 105.362 26.2464 105.607L28.9885 119.266C29.0528 119.592 28.8408 119.908 28.5107 119.98L28.3861 120ZM23.615 128.998C23.3871 128.993 23.1784 128.867 23.0644 128.665C22.9155 128.36 23.0334 127.99 23.3295 127.833L38.1154 120.073C38.258 119.994 38.426 119.978 38.5803 120.03C38.7345 120.081 38.8614 120.194 38.9312 120.343C39.0834 120.643 38.975 121.011 38.6865 121.176L23.9618 128.936C23.8531 128.986 23.7339 129.007 23.615 128.998Z" fill="white" />
</svg>

<svg xmlns="http://www.w3.org/2000/svg" width="180" height="206" fill="none"><path fill="#91A0D8" fill-opacity=".27" d="M-4.868 186.21c-17.243-11.767-16.5-55.945 4.764-75.248 16.81-15.338 31.68-1.486 56.719-15.359 30.752-17.073 25.369-47.481 53.79-66.061 26.524-17.3 63.215-18.311 68.887-7.535 5.92 11.23-26.544 26.651-50.717 76.156-16.974 34.703-8.518 42.465-24.75 59.352-19.985 20.871-48.18 24.959-84.273 30.202-14.603 2.147-19.903 1.569-24.42-1.507Z"/><path fill="#9289FF" fill-opacity=".4" d="M83.21 1.606a78.238 78.238 0 0 0-45.549 26.93c-19.834 24.743-6.087 41.63-21.325 75.076-18.115 39.755-53.104 50.003-49.005 58.415 4.555 9.362 52.898 7.114 74.409-20.764 17.515-22.681.766-41.033 16.335-73.447 19.503-40.641 64.782-51.24 60.662-62.23-2.816-7.464-24.803-5.938-35.528-3.98Z"/><path fill="#fff" d="M10.243 171a1.237 1.237 0 0 1-1.195-.887 1.259 1.259 0 0 1 .845-1.548c45.771-13.228 73.8-32.729 83.258-57.946a90.874 90.874 0 0 0 3.978-15.56c1.525-7.965 3.112-16.219 8.965-25.98 10.613-17.643 29.223-30.438 55.334-38.032a1.237 1.237 0 0 1 1.525.846 1.239 1.239 0 0 1-.845 1.527c-25.493 7.409-43.629 19.832-53.892 36.918-5.646 9.39-7.11 17.066-8.655 25.197a92.433 92.433 0 0 1-4.122 15.951c-9.748 26.001-38.311 45.997-84.887 59.473l-.309.041Z"/><path fill="#9289FF" fill-opacity=".4" d="M49.564 148.17c-45.44 16.124-72.293 25.728-71.549 35.95 1.115 13.799 53.373 32.679 87.123 14.17 20.51-11.25 20.552-28.793 55.026-54.541 17.37-12.978 28.731-16.988 27.781-19.559-2.004-5.409-54.819 8.494-98.38 23.98Z"/><path fill="#fff" d="M21.563 192.983a109.838 109.838 0 0 1-28.637-4.127 1.28 1.28 0 0 1-.89-1.527 1.243 1.243 0 0 1 1.532-.867c22.984 6.191 41.95 5.386 56.382-2.538 7.455-4.128 12.217-9.143 17.725-15.024a128.964 128.964 0 0 1 23.294-20.534 132.042 132.042 0 0 1 33.42-16.303 1.218 1.218 0 0 1 1.552.785 1.237 1.237 0 0 1-.786 1.547 130.675 130.675 0 0 0-32.799 15.994 126.983 126.983 0 0 0-22.88 20.183c-5.653 6.025-10.54 11.226-18.325 15.518a60.79 60.79 0 0 1-29.589 6.893ZM-19.377 158a.64.64 0 0 1-.599-.452.616.616 0 0 1 .413-.761c18.027-5.183 31.717-13.964 40.72-26.097 9.003-12.134 10.325-23.198 12.039-35.208.839-7.607 2.395-15.12 4.646-22.436 8.26-24.843 30.25-46.025 65.271-62.992a.641.641 0 0 1 .826.288.616.616 0 0 1-.289.823C68.96 27.967 47.195 48.923 39.018 73.436a119.967 119.967 0 0 0-4.604 22.21c-1.693 12.175-3.304 23.692-12.266 35.763-8.961 12.072-23.065 21.306-41.298 26.57l-.227.021Z"/><path fill="#fff" d="M75.616 26.985a.63.63 0 0 1-.272 0 .616.616 0 0 1-.314-.369.637.637 0 0 1 .043-.488l6.74-13.763a.639.639 0 0 1 .855-.3.696.696 0 0 1 .271.879l-6.76 13.762a.62.62 0 0 1-.563.28ZM63.599 37a.599.599 0 0 1-.594-.53.611.611 0 0 1 .436-.672l13.83-3.77a.539.539 0 0 1 .448.05.57.57 0 0 1 .263.377.634.634 0 0 1-.415.754l-13.83 3.77L63.6 37Zm-7.93 7h-.178a.663.663 0 0 1-.404-.298.606.606 0 0 1-.063-.483l6.667-23.733A.637.637 0 0 1 62 19.09a.697.697 0 0 1 .514-.067.65.65 0 0 1 .467.781l-6.667 23.754a.687.687 0 0 1-.644.443Zm-7.042 12a.581.581 0 0 1-.559-.338.555.555 0 0 1-.034-.457.585.585 0 0 1 .324-.337l12.754-5.815a.653.653 0 0 1 .827.277.585.585 0 0 1-.29.794L48.875 55.94l-.248.06Zm-7.184 10.98c-.271-.008-.498-.235-.534-.536L38.003 42.69c-.032-.335.18-.637.478-.68a.49.49 0 0 1 .412.106.614.614 0 0 1 .214.409l2.888 23.774a.674.674 0 0 1-.108.463.542.542 0 0 1-.37.238l-.074-.02ZM36.613 79a.6.6 0 0 1-.496-.267.613.613 0 0 1 .144-.862l12.764-8.763a.627.627 0 0 1 .867.164c.194.283.12.669-.165.862l-12.763 8.743a.56.56 0 0 1-.352.123ZM33.41 95.999a.6.6 0 0 1-.558-.406l-4.767-12.621a.68.68 0 0 1 .024-.7.58.58 0 0 1 .606-.26.62.62 0 0 1 .467.49l4.767 12.62a.662.662 0 0 1 .008.49.6.6 0 0 1-.327.344.432.432 0 0 1-.22.043Zm-.822 7a.596.596 0 0 1-.496-.254.603.603 0 0 1 .179-.823l13.89-8.87a.6.6 0 0 1 .745.219c.16.245.112.569-.111.76l-13.89 8.87a.477.477 0 0 1-.317.098ZM28.386 120a.641.641 0 0 1-.623-.489l-2.722-13.68a.604.604 0 0 1 .148-.658.632.632 0 0 1 .675-.126c.23.095.38.315.382.56l2.742 13.659a.612.612 0 0 1-.477.714l-.125.02Zm-4.771 8.998a.65.65 0 0 1-.55-.333.63.63 0 0 1 .264-.832l14.786-7.76a.577.577 0 0 1 .465-.043.594.594 0 0 1 .351.313c.152.3.044.668-.244.833l-14.725 7.76a.702.702 0 0 1-.347.062Z"/></svg>
